co/grid_big.svg

<svg viewBox="0 0 24 24" fill="none" xmlns="http://www.w3.org/2000/svg" height="1em" width="1em">
  <path d="M19 19h-6v-6h6v6Zm-8 0H5v-6h6v6Zm8-8h-6V5h6v6Zm-8 0H5V5h6v6Z" fill="#000"/>
</svg>

<svg viewBox="0 0 24 24" fill="none" xmlns="http://www.w3.org/2000/svg" height="1em" width="1em">
  <path d="M19 19H13V13H19V19ZM11 19H5V13H11V19ZM19 11H13V5H19V11ZM11 11H5V5H11V11Z" fill="black"/>
</svg>
